X:4
T:Shandon Bells
R:Jig
O:Ireland
M:6/8
K:D
C:Trad.-Natalie MacMaster, Richard Wood
|:B|AFD DFA|ded cBA|BGE EGB|B2 A Bcd|AFD DFA|ded cBA|
Bcd ecA|1.d3 d2:|2.d3 d||:eg|f2 d dcd|faa aed|cAA eAA|
cde efg|f2 d dcd|fag fed|Bed cBc|1.d3 d:|2.d3 d2||

